X:1
T:Angelis suis mandavit
T:Johann Michael Haydn edit BMarble
T:Angelis suis mandavit
T:Copyright © 2015 by CPDL.  This edition can be fully distributed, duplicated, performed, and recorded. 
T:Copyright © 2015 by CPDL.  This edition can be fully distributed, duplicated, performed, and recorded. 
T:Copyright © 2015 by CPDL.  This edition can be fully distributed, duplicated, performed, and recorded. 
T:Copyright © 2015 by CPDL.  This edition can be fully distributed, duplicated, performed, and recorded. 
T:Copyright © 2015 by CPDL.  This edition can be fully distributed, duplicated, performed, and recorded. 
T:Copyright © 2015 by CPDL.  This edition can be fully distributed, duplicated, performed, and recorded. 
T:Copyright © 2015 by CPDL.  This edition can be fully distributed, duplicated, performed, and recorded. 
T:Copyright © 2015 by CPDL.  This edition can be fully distributed, duplicated, performed, and recorded. 
T:Copyright © 2015 by CPDL.  This edition can be fully distributed, duplicated, performed, and recorded. 
T:Copyright © 2015 by CPDL.  This edition can be fully distributed, duplicated, performed, and recorded. 
T:Copyright © 2015 by CPDL.  This edition can be fully distributed, duplicated, performed, and recorded. 
T:Copyright © 2015 by CPDL.  This edition can be fully distributed, duplicated, performed, and recorded. 
C:Johann Michael Haydn
C:edit BMarble
Z:Copyright © 2015 by CPDL.  This edition can be fully distributed, duplicated, performed, and recorded.
Z:
%%score { ( 1 2 ) | ( 3 4 ) } { ( 5 7 8 ) | 6 }
L:1/8
Q:1/4=100
M:2/2
K:D
V:1 treble nm="Choir" snm="Choir"
V:2 treble 
V:3 bass 
V:4 bass 
V:5 treble nm="Organ" snm="Org."
V:7 treble 
V:8 treble 
V:6 bass 
V:1
"^Gradual, Lent I:  Psalm 91For God commands his angels to warch over you,to guard you wherever you go.With their hands they shall bear you,lest you strike your foot against a stone." B6 dB | %1
w: An- ge- *|
w: An- ge- lis|
 [Ff]4 [^DF]4 | [EB]4 [Ee]2 [Ee]2 | [Fe]4 [Bd]2 [Bd]2 | (c2 e2) B2 ^A2 | [FB]2 z2 [DF]2 [DF]2 | %6
w: su- is|De- us man-|da- vit, man-|da- * vit de|te: ut cu-|
w: su- is|||||
 [EG]2 [CE][EG] [DF]2 z2 | z4 z2 F2 | [Ff]2 [Fe][Fd] [Gc]2 [EB]2 | B2 ^A2 z2 c2 | c3 F F2 z2 | %11
w: sto- di- ant te|in|o- mni- bus vi- is|tu- is. *||
w: |||* * In|ma- ni- bus|
 z4 z2 c2 | c2 F2 F2 z2 | z4 z2 c2 | d4 B2 e2 | (d2 c2) d2 d2 | B6 AG | [DF]2 [EG]2 ([DF]2 [CE]2) | %18
w: ||ne|un- quam of-|fen- * das *|* ad dem|pe- dem tu- *|
w: por-|ta- bunt te,|ne|un- quam of-|fen- * das ad|la- pi- dem|pe- dem tu- *|
 D2 D2 A4- | A4 A4 | z2 D2 A4- | A4 A4 | z2 A2 d4- | [Gd]3 [GB] [GB]2 [DB]2 | [GB]3 [EG] [EG]4 | %25
w: um, * *|un- quam|das *|la- pi-|um *|la- pi- dem, ad|la- pi- dem|
w: um, ne un-|* quam|of- fen-|* das|ad la-|* pi- dem *||
 [DF]2 [EG]2 ([DF]2 [CE]2) | D2 z2 z4 | [FA]6 [EG][DF] | ([DF]2 [CE]2) D4 | [DB]4 [GB]2 [Gc]2 | %30
w: pe- dem tu- *|um.|An- ge- lis|su- * is|De- us man-|
w: |||||
 [Fd]4 [FA]2 [FA]2 | ([FA]2 [GB]2) z2 [EG]2 | ([EG]2 [DF]2) [FA]2 [FA]2 | [GB]2 [EG][GB] [FA]2 z2 | %34
w: da- vit de|te, _ de|te, _ ut cu-|sto- di- ant te,|
w: ||||
 z4 [GB]2 [GB]2 | [A=c]2 [FA][Ac] [^GB]2 z2 | z4 z2 [CF]2 | [Df]2 [Ee][Fd] [Gc]2 [EB]2 | %38
w: ut cu-|sto- di- ant te|in|o- mni- bus vi- is|
w: ||||
 B2 ^A2 z2 c2 | c3 F F2 z2 | z4 z2 f2 | f2 B2 B2 z2 | z4 z2 e2 | d6 c2 | c2 z2 z2 c2 | e4 c2 c2 | %46
w: tu- is. *|||||* por-|te, ne|un- quam of-|
w: * * In|ma- ni- bus|por-|ta- bunt te,|por-|ta- bunt|te, ne|un- quam of-|
 e4 c2 c2 | e6 fe | d2 c2 (B2 ^A2) | B2 B2 f4- | f4 F4 | z2 B2 f4- | f4 F4 | z2 F2 B4- | %54
w: fen- das *|* ad dem|pe- dem tu- *|um, * *|un- quam|das- *|la- pi-|um, *|
w: fem- das ad|la- pi- dem|pe- dem tu- *|um, ne- un-|* quam|of- fen-|* das|ad la-|
 [EB]3 [EG] [EG]2 [EG]2 | [EF]3 [CF] [Fe]4 | d2 c2 (B2 ^A2) | [DB]2 z2 z4 | z4 z2 [DF]2 | %59
w: la- pi- dem, ad|la- pi- dem|pe- dem tu- *|um.|In|
w: * pi- dem ad|la- pi- dem||||
 [EG]3 [EG] [DF]2 z2 | z4 z2 [B,G]2 | [CG]2 [EF]2 [DF]2 [Fd]2 | d6 c2 | c2 z2 z2 c2 | e4 c2 c2 | %65
w: ma- ni- bus|por-|ta- bunt te, por-|ta- bunt|te, ne|un- quam of-|
w: ||* * * por-|ta- bunt|te, ne|un- quam of-|
 e4 c2 c2 | e6 fe | d2 c2 (B2 ^A2) | [DB]2 z2 z2 [Fd]2 | [Fc]2 [F^A]2 z2 [Ae]2 | %70
w: fen- das *|* ad dem|pe- dem tu- *|um, ne|un- quam of-|
w: fen- das ad|la- pi- dem|pe- dem tu- *|um, ne||
 [Bd]2 [Ff]2 z2 [Fd]2 | [Fc]2 [C^A][CA] [Cc]2 [Ae]2 | [Bd]2 [Ff]2 z2 [EB]2 | %73
w: fen- das ad|la- pi- dem pe- dem|tu- um, ad|
w: |||
 [EB]3 [EB] [EG]2 [EG]2 | [EG]6 [EF]2 | [EF]4 z4 | [DF]4 [D^E]4 |"^rit." F8 | %78
w: la- pi- dem, ad|la- pi-|dem|pe- dem|tu-|
w: |||||
[Q:1/4=92] [B,^D]4 [FB]2 [FB]2 |"^rit." [EG]2 [^DF]2 [EG]2 [FB]2 | G8 | [^DF]8 |] %82
w: um, ne of-|fen- das pe- dem|tu-|um.|
w: ||||
V:2
 F3 F F4 | x8 | x8 | x8 | G4 F2 F2 | x8 | x8 | x8 | x8 | F2 F2 z4 | z4 z2 C2 | D3 D C2 z2 | %12
w: ||||||||||In|ma- ni- bus|
 z4 z2 C2 | F2 D2 C2 F2 | F4 E2 G2 | (F2 E2) D2 z2 | z2 G2 G2 FE | x8 | D2 z2 z2 F2 | E2 E2 z2 E2 | %20
w: por-|ta- bunt te, *|||||||
 D2 F2 z2 F2 | E2 EE G2 E2 | D2 F2 z2 F2 | x8 | x8 | x8 | x8 | x8 | x8 | x8 | x8 | x8 | x8 | x8 | %34
w: |* * dem pe- dem|||||||||||||
 x8 | x8 | x8 | x8 | F2 F2 z4 | z4 z2 C2 | C3 C D2 z2 | z4 z2 F2 | F2 B,2 B,2 z2 | z2 G2 ^G2 G2 | %44
w: |||||In|ma- ni- bus|por-|ta- bunt te,||
 F2 x4 F2 | E4 F2 F2 | E4 F2 z2 | z2 ^A2 B2 FF | F2 G2 F4 | D2 z2 z2 F2 | F2 ^A2 z2 A2 | %51
w: |||||||
 B2 F2 z2 F2 | F2 ^AA A2 A2 | B2 F2 z2 F2 | x8 | x8 | F2 G2 F4 | x8 | x8 | x8 | x8 | x8 | G4 ^G4 | %63
w: ||||||||||||
 F2 x4 F2 | E4 F2 F2 | E4 F2 z2 | z2 ^A2 B2 FF | F2 G2 F4 | x8 | x8 | x8 | x8 | x8 | x8 | x8 | x8 | %76
w: |||||||||||||
 x8 | (D4 C4) | x8 | x8 | (E4 C4) | x8 |] %82
w: ||||||
V:3
 [B,D]3 [B,D] [B,D]4 | [^A,C]4 [=A,B,]4 | [^G,B,]4 [=G,B,]2 [G,B,]2 | [F,^A,]4 [G,B,]2 [D,F]2 | %4
w: ||||
w: ||||
w: ||||
 E4 D2 C2 | [B,,B,]2 z2 z4 | z4 [D,F,]2 [D,F,]2 | [E,G,]2 [C,E,][E,G,] [D,F,]2 [B,D]2 | %8
w: ||||
w: ||||
w: ||ut cu-|sto- di- ant te in|
 [B,,D]2 [C,C][D,B,] [E,E]2 [G,B,]2 | [F,D]2 [F,C]2 z4 | z4 z2 [F,^A,]2 | %11
w: |||
w: |||
w: |||
 [B,,B,]3 [B,,B,] [F,^A,]2 z2 | z4 z2 [F,^A,]2 | [D,B,]2 [B,,B,]2 [F,^A,]2 [F,A,]2 | %14
w: |||
w: |||
w: |||
 B,4 [G,B,]2 [E,B,]2 | A,4 A,2 z2 | z2 [G,D]2 [B,,D]2 [C,A,][C,A,] | A,2 B,2 A,3 G, | %18
w: ||||
w: ||||
w: ||||
 [D,F,]2 z2 z2 [D,A,]2 | [C,A,]2 [A,,C]2 z2 [G,C]2 | [F,D]2 [D,A,]2 z2 [D,A,]2 | %21
w: |||
w: |||
w: |||
 [C,A,]2 [A,,C][A,,C] [C,C]2 [G,C]2 | [F,D]2 [D,A,]2 z2 [D,A,]2 | [G,B,]3 [G,D] [G,D]2 G,2 | %24
w: |||
w: |||
w: |||
 [C,E,]3 [C,A,] [C,A,]4 | A,2 B,2 A,3 G, | [D,F,]2 z2 z4 | [D,D]3 [D,D] [F,A,]4 | A,4 A,4 | %29
w: |||||
w: |||||
w: |||An- ge- lis|su- is|
 [G,B,]4 [E,B,]2 A,2 | [D,A,]4 [D,D]2 [D,D]2 | [G,,B,]4 z2 [A,,C]2 | C2 D2 z4 | %33
w: ||||
w: ||||
w: De- us man-|da- vit de|te, de|te,- *|
 z4 [F,A,]2 [F,A,]2 | [A,=C]2 [F,A,][A,C] [G,B,]2 z2 | z4 [^G,B,]2 [G,B,]2 | %36
w: |||
w: |||
w: ut cu-|sto- di- ant te,|ut cu-|
 [B,D]2 [^G,B,][B,D] [^A,C]2 [E,A,]2 | [D,B,]2 [C,C][B,,D] [E,E]2 [G,B,]2 | [F,D]2 [F,C]2 z4 | %39
w: |||
w: |||
w: sto- di- ant te in|o- mni- bus vi- is|tu- is.|
 z4 z2 [F,^A,]2 | [E,^A,]3 [E,A,] [D,B,]2 z2 | z4 z2 [B,D]2 | [A,^D]2 [A,D]2 [G,E]2 z2 | %43
w: ||||
w: ||||
w: ||||
 z2 [E,B,]2 [^E,B,]2 [E,B,]2 | [F,^A,]2 z2 z2 [F,A,]2 | [G,B,]4 [F,^A,]2 [F,A,]2 | %46
w: |||
w: |||
w: |||
 [G,B,]4 [F,^A,]2 z2 | z2 [F,C]2 [^G,B,]2 [^A,C][A,C] | D2 E2 D2 C2 | [B,,B,]2 z2 z2 [B,D]2 | %50
w: ||||
w: ||||
w: ||||
 [^A,C]2 [F,C]2 z2 [E,C]2 | [D,B,]2 [B,,D]2 z2 [B,D]2 | [^A,C]2 [F,C][F,C] [C,E]2 [E,C]2 | %53
w: |||
w: |||
w: |||
 [D,B,]2 [B,,D]2 z2 [B,,D]2 | [G,B,]3 [E,B,] [E,B,]2 [C,C]2 | [^A,,C]3 [A,,E] [A,,C]4 | %56
w: |||
w: |||
w: |||
 D2 E2 D2 C2 | B,2 z2 z4 | z4 z2 B,2 | ^A,3 A, B,2 z2 | z4 z2 E,2 | ^A,2 A,2 B,2 B,2 | %62
w: ||||||
w: ||||||
w: pe- dem tu- *|um.||||* * * por-|
 [E,B,]4 [^E,B,]4 | [F,^A,]2 z2 z2 [F,A,]2 | [G,B,]4 [F,^A,]2 [F,A,]2 | [G,B,]4 [F,^A,]2 z2 | %66
w: ||||
w: ||||
w: ta- bunt|te, ne|un- quam of-|fen- das|
 z2 [F,C]2 [^G,B,]2 [^A,C][A,C] | D2 E2 D2 C2 | B,2 z2 z2 B,2 | ^A,2 C2 z2 C2 | B,2 D2 z2 B,2 | %71
w: |||||
w: |||||
w: ad la- pi- dem|pe- dem tu- *|um, *|||
 C2 EE F,2 C2 | B,2 D2 z2 B,2 | B,3 B, B,2 C2 | [^A,,C]6 [A,,C]2 | [^A,,C]4 z4 | [B,,B,]4 [G,B,]4 | %77
w: ||||||
w: ||||||
w: ||||||
 B,4 ^A,4 | [B,,B,]4 [^D,B,]2 [D,B,]2 | [E,B,]2 [B,,B,]2 [E,B,]2 [^D,B,]2 | B,4 ^A,4 | [B,,B,]8 |] %82
w: |||||
w: |||||
w: |||||
V:4
 x8 | x8 | x8 | x8 | E,2 C,2 F,2 F,2 | x8 | x8 | x8 | x8 | x8 | x8 | x8 | x8 | x8 | x8 | %15
w: |||||||||||||||
w: |||||||||||||||
w: |||||||||||||||
 A,2 G,2 F,2 x2 | x8 | D,2 G,,2 A,,4 | x8 | x8 | x8 | x8 | x8 | x8 | x8 | D,2 G,,2 A,,4 | x8 | x8 | %28
w: |||||||||||||
w: |||||||||||||
w: |||||||||||||
 A,2 G,2 F,4 | x8 | x8 | x8 | D,4 x4 | x8 | x8 | x8 | x8 | x8 | x8 | x8 | x8 | x8 | x8 | x8 | x8 | %45
w: |||||||||||||||||
w: |||||||||||||||||
w: |||||||||||||||||
 x8 | x8 | x8 | B,2 E,2 F,4 | x8 | x8 | x8 | x8 | x8 | x8 | x8 | B,,2 E,2 F,4 | B,,2 z2 z2 F,2 | %58
w: |||||||||||||
w: |||||||||||||
w: ||||||||||||* In|
 B,3 B,, B,,2 z2 | z4 z2 B,2 | B,2 B,,2 B,,2 z2 | z4 z2 D,2 | x8 | x8 | x8 | x8 | x8 | %67
w: |||||||||
w: |||||||||
w: ma- ni- bus|por-|ta- bunt te,|||||||
 B,2 E,2 F,4 | B,,2 B,,2 F,4- | F,4 F,4 | z2 B,,2 F,4- | F,4 F,4 | z2 B,,2 G,4- | G,3 G, E,2 C,2 | %74
w: |||||||
w: |||||||
w: ||* quam|of- fen-|* das|ad la-|* pi- dem, ad|
 x8 | x8 | x8 | F,8 | x8 | x8 | E,8 | x8 |] %82
w: ||||||||
w: ||||||||
w: ||||||||
V:5
!p! [DFB]8 | [Cc]4 [^DB]4 | [EB]8 | ^A4 B4 | [Gc]4 [DB]2 [C^A]2 | [DFB]4 [DF]4 | [EG]4 [DF]4 | %7
 [EG]4 [DF]4 | [DFB]2 [E^A][FB] [EGc]2 [B,EB]2 | [DFB]2 [CF^A]2 z2 c2 | z4 z2 [C^A]2 | %11
 [DB]4 [C^A]2 c2 | z4 z2 [C^A]2 | [DFB]2 [FBd]2 [F^Ac]4 | [Fd]4 [Ee]4 | [Fd]2 [Ec]2 [Dd]4 | %16
 [GB]6 [FA][EG] | [DF]2 [EG]2 [DF]2 [CE]2 | [F,A,D]4 z2 [DFA]2 | [CEA-]8 | [DFA]8 | A8- | A4 F4 | %23
 [DG]8 | [EG]8 | [DF]2 [EG]2 [DF]2 [CE]2 | D2 [DB]4 [CA]2 | [FA]6 [EG][DF] | %28
 [DF]2 [CE]2 [A,D]2 [DF]2 | B6 A2 | [FA]8- | [FA]2 G6- | [EG]2 [DF]2 [FA]4 | [GB]4 [FA]4- | %34
 [=CFA]4 [B,EG]4 | [A=c]4 [^GB]4- | [DGB]4 [CF^A]4 | [DFB]2 [E^Ac][FBd] [EGc]2 [B,EB]2 | %38
 [DFB]2 [CF^A]2 z2 c2 | z4 z2 [C^A]2 | [C^A]4 [B,B]2 f2 | z4 z2 [Fd]2 | [F^d]4 [Ee]4 | d6 c2 | %44
 [F^Ac]8 | [EBe]4 [F^Ac]4 | [EBe]4 [F^Ac]4 | e6 c2 | [Fd]2 [EGc]2 [DFB]2 [CF^A]2 | %49
 [DFB]4 z2 [DF]2 | F2 ^A2 z2 A2 | [DFB]4 z2 [DF]2 | F2 ^A2- A4 | [FB]4 z2 [DF]2 | B6 c2 | %55
 [EFc]4 [Fce]4 | [FBd]2 [EGc]2 [DFB]2 [CF^A]2 | B6 [F^A]2 | [DFB]4 [DF]4 | [EG]4 [DF]2 [^DFB]2 | %60
 [E-G-B]8 | [Ec]4 d4- | d6 c2 | [F^Ac]8 | [EBe]4 [F^Ac]4 | [EBe]4 [F^Ac]4 | e6 c2 | %67
 [Fd]2 [EGc]2 [DFB]2 [CF^A]2 | B8 | ^A4 c4 | B8 | ^A4 c4 | [FB]4 [EG]4- | [EG]8- | G6 F2 | %75
 [CEF]4 z4 | F4 ^E4 | F8 | [^DF]4 [FB]4 | [EG]2 [^DF]2 [EG]2 [FB]2 | G8 | [B,^DF]8 |] %82
V:6
 B,,4 B,4 | ^A,4 =A,4 | ^G,4 [=G,B,]4 | [F,C]4 [G,B,]2 D,2 | E,2 C,2 F,2 F,,2 | B,2 B,,2 z4 | %6
 z4 B,,2 B,,2 | ^A,,4 B,,2 B,2 | B,,2 C,D, E,2 G,2 | F,2 F,,2 z4 | z4 z2 F,2 | B,,4 F,2 z2 | %12
 z4 z2 F,2 | D,2 B,,2 F,2 F,2 | B,,2 B,2 G,2 E,2 | A,2 G,2 F,2 F,,2 | G,,2 G,2 B,,2 C,2 | %17
 D,2 G,,2 A,,2 A,,2 | D,2 D,,2 z2 D,2 | C,2 A,,2 z2 G,2 | F,2 D,2 z2 D,2 | C,2 A,,2 C,2 G,2 | %22
 F,2 D,2 z2 D,2 | G,2 G,,2 z2 G,2 | C,2 C,2 z2 C,2 | D,2 G,,2 A,,2 A,,2 | D,>F, B,,>D, G,,2 A,,2 | %27
 D,4 F,4 | A,2 G,2 F,2 D,2 | G,,2 G,2 E,2 A,2 | D,2 D2 z2 D,2 | G,,4 A,,4 | D,2 D,,2 z2 D,2 | %33
 C,4 D,4 | ^D,4 E,4 | ^D,4 E,4 | ^E,4 F,2 =E,2 | D,2 C,B,, E,2 G,2 | F,2 F,,2 z4 | z4 z2 F,2 | %40
 E,4 D,2 z2 | z4 z2 B,2 | A,4 G,4 | E,4 ^E,4 | F,2 C2 ^A,2 F,2 | G,2 G,,G, F,2 F,,2 | %46
 G,2 G,,G, F,2 F,,2 | z2 [F,C]2 [^G,B,]2 [^A,C]2 | B,2 E,2 F,2 F,2 | B,2 B,,2 z2 B,2 | %50
 ^A,2 F,2 z2 E,2 | D,2 B,,2 z2 B,2 | ^A,2 F,2 C,2 E,2 | D,2 B,,2 z2 B,,2 | G,2 E,2 z2 C,2 | %55
 ^A,,2 A,,2 z2 A,,2 | B,,2 E,2 F,2 F,2 | B,>D G,>B, E,2 F,2 | B,2 B,,2 z2 B,2 | ^A,4 B,2 =A,2 | %60
 G,2 E,2 E,,2 E,2 | ^A,4 B,2 D,2 | E,2 E,2 ^E,2 E,2 | F,2 C2 ^A,2 F,2 | G,2 G,,G, F,2 F,,2 | %65
 G,2 G,,G, F,2 F,,2 | z2 [F,C]2 [^G,B,]2 [^A,C]2 | B,2 E,2 F,2 F,,2 | B,,2 B,,2 D,2 B,,2 | %69
 z2 F,2 ^A,2 F,2 | z2 B,,2 D,2 B,,2 | z2 F,2 ^A,2 F,2 | z2 B,,2 G,2 G,,2 | z2 G,2 E,2 C,2 | %74
 ^A,,2 A,,2 A,,2 A,,2 | ^A,,4 z4 | B,,4 G,4 | F,4 F,,4 | B,,4 ^D,2 D,2 | E,2 B,,2 E,2 ^D,2 | E,8 | %81
 B,,8 |] %82
V:7
 x8 | F8 | x8 | E4 D2 [DF]2 | C2 E2 F4 | x8 | x8 | x8 | x8 | x8 | c3 F F4- | F6 x2 | c2 F2 F4 | %13
 x8 | B8 | A8 | D6 A,2 | A,2 B,2 A,4 | x8 | x8 | x8 | C8 | [A,D]8 | B,8- | B,4 A,4- | A,2 B,2 A,4 | %26
 [F,A,]2 F2 E4 | x8 | x8 | D4 E4 | x8 | B,4 [CE-]4 | x8 | x8 | x8 | x8 | x8 | x8 | x8 | c3 F F4- | %40
 F6 x2 | f2 B2 B4- | B8- | G4 ^G4 | x8 | x8 | x8 | z2 ^A2 B2 F2- | x8 | x8 | C4 x2 [CF]2 | x8 | %52
 C4- [CE]4 | B,2 D2 x4 | [EG]8 | x8 | x8 | D4 C4 | x8 | x8 | x8 | G2 F2 [DF]2 [FB]2 | G4 ^G4 | x8 | %64
 x8 | x8 | z2 ^A2 B2 F2 | x8 | [DF]8 | [CF]8 | [DF]8 | [CF]8 | D4 B,4- | B,6 C2 | [CE]8 | x8 | %76
 [B,D]8- | [B,D]4 [^A,C]4 | B,8- | B,8- | [B,E]4 [^A,C]4 | x8 |] %82
V:8
 x8 | x8 | x8 | x8 | x8 | x8 | x8 | x8 | x8 | x8 | x8 | x8 | x8 | x8 | x8 | x8 | x8 | x8 | x8 | %19
 x8 | x8 | E4 G2 E2 | x8 | x8 | x8 | x8 | x8 | x8 | x8 | G8 | x8 | x8 | x8 | x8 | x8 | x8 | x8 | %37
 x8 | x8 | x8 | x8 | x8 | x8 | B8 | x8 | x8 | x8 | x8 | x8 | x8 | x8 | x8 | x8 | x8 | x8 | x8 | %56
 x8 | F2 G4 x2 | x8 | x8 | x8 | x8 | B8 | x8 | x8 | x8 | x8 | x8 | x8 | x8 | x8 | x8 | x8 | x8 | %74
 x8 | x8 | x8 | x8 | x8 | x8 | x8 | x8 |] %82

